X: 10086
T: The Piper's Leg
C: Bob McQuillen 18 Apr 93
B: Bob's Note Book 10 #86
Z: 2005 John Chambers
M: 6/8
L: 1/8
K: A
   c | e2c cBc | e2c cBc | Ace faf | ecA Bcd | e2c cBA | e2c cBA | def eac | BAG A2 :|
|: c | e2a ece | fga e2d | cAc eaf | edc B2c | def efg | agf ecA | def ecA | B3  A2 :|
%%begintext align
%% This tune commemorates the fine concert of  Scottish  music  given  by  the
%% Strathspey  and  Reel Society of New Hampshire on 19 Nov, 1992 at St Paul's
%% School in Concord and is affectionately dedicated to Sylvia Miskoe with  my
%% most sincere thanks for her many kindnesses to me.
%%endtext

%%sep 1 1 500

%%sep 1 1 500

